src/icons/icons_set_02/020-photos.svg

<svg height="50" viewBox="0 0 50 50" width="50" xmlns="http://www.w3.org/2000/svg" xmlns:xlink="http://www.w3.org/1999/xlink"><mask id="a" fill="#fff"><path d="m35.125 9h-21.875v33.125h-13.25v-42.125h35.125z" fill="#fff" fill-rule="evenodd"/></mask><g fill="none" fill-rule="nonzero" transform="translate(1.995 1.995238)"><path d="m12.5025 8.7238625v34.1506292h31.5075v-34.1506292zm29.7935083 27.0828158h-28.064513v-25.268753h28.064513z" fill="#000"/><path d="m4.4772129 5.27304107v34.15062913h31.5075v-34.15062913zm29.7935083 27.08281573h-28.06451303v-25.26875293h28.06451303z" fill="#000" mask="url(#a)" transform="matrix(.98768834 -.15643447 .15643447 .98768834 -3.246976 3.439965)"/><g fill="#0c0c0c"><path d="m39.5075 32.845682v-20.845682h-23.5075v20.845682zm-27.5075 4v-28.845682h31.5075v28.845682z"/><path d="m8.27016519 30.3291874v4l-4-4zm0 0v-20.84568202h23.50750001v3.09947372h4v-7.09947372h-31.50750001v28.84568202h7.32139081v-4zm-4-20.84568202 4-4v4zm27.50750001-4 4 4h-4zm0 0 4 4h-4zm0 4v3.09947372h4l-4.1454123-2.2747994-27.36208771-4.82467432 4 24.84568202 3.32139081 4v-4h-3.32139081v-20.84568202zm-23.50750001 20.84568202v4l-4-4z" transform="matrix(.98480775 -.17364818 .17364818 .98480775 -3.152492 3.779538)"/></g></g></svg>

<?xml version="1.0" encoding="UTF-8"?>
<svg width="50px" height="50px" viewBox="0 0 50 50" version="1.1" xmlns="http://www.w3.org/2000/svg" xmlns:xlink="http://www.w3.org/1999/xlink">
    <!-- Generator: Sketch 52.4 (67378) - http://www.bohemiancoding.com/sketch -->
    <title>020-photos</title>
    <desc>Created with Sketch.</desc>
    <defs>
        <polygon id="path-1" points="35.125 9 13.25 9 13.25 42.125 0 42.125 0 0 35.125 0"></polygon>
    </defs>
    <g id="020-photos" stroke="none" stroke-width="1" fill="none" fill-rule="evenodd">
        <g id="Group" transform="translate(1.995000, 1.995238)">
            <g id="042-photos-02">
                <g id="ICONSET-01">
                    <g id="042-photos-02">
                        <path d="M12.5025,8.7238625 L12.5025,42.8744917 L44.01,42.8744917 L44.01,8.7238625 L12.5025,8.7238625 Z M42.2960083,35.8066783 L14.2314953,35.8066783 L14.2314953,10.5379253 L42.2960083,10.5379253 L42.2960083,35.8066783 Z" id="Shape" fill="#000000" fill-rule="nonzero"></path>
                        <g id="Shape">
                            <mask id="mask-2" fill="white">
                                <use xlink:href="#path-1"></use>
                            </mask>
                            <g id="Mask" fill-rule="nonzero"></g>
                            <path d="M4.4772129,5.27304107 L4.4772129,39.4236702 L35.9847129,39.4236702 L35.9847129,5.27304107 L4.4772129,5.27304107 Z M34.2707212,32.3558568 L6.20620817,32.3558568 L6.20620817,7.08710387 L34.2707212,7.08710387 L34.2707212,32.3558568 Z" fill="#000000" fill-rule="nonzero" mask="url(#mask-2)" transform="translate(20.230963, 22.348356) rotate(-9.000000) translate(-20.230963, -22.348356) "></path>
                        </g>
                        <path d="M39.5075,32.845682 L39.5075,12 L16,12 L16,32.845682 L39.5075,32.845682 Z M12,36.845682 L12,8 L43.5075,8 L43.5075,36.845682 L12,36.845682 Z" id="Path-2" fill="#0C0C0C" fill-rule="nonzero"></path>
                        <path d="M8.27016519,30.3291874 L8.27016519,34.3291874 L4.27016519,30.3291874 L8.27016519,30.3291874 Z M8.27016519,30.3291874 L8.27016519,9.48350538 L31.7776652,9.48350538 L31.7776652,12.5829791 L35.7776652,12.5829791 L35.7776652,5.48350538 L4.27016519,5.48350538 L4.27016519,34.3291874 L11.591556,34.3291874 L11.591556,30.3291874 L8.27016519,30.3291874 Z M4.27016519,9.48350538 L8.27016519,5.48350538 L8.27016519,9.48350538 L4.27016519,9.48350538 Z M31.7776652,5.48350538 L35.7776652,9.48350538 L31.7776652,9.48350538 L31.7776652,5.48350538 Z M31.7776652,5.48350538 L35.7776652,9.48350538 L31.7776652,9.48350538 L31.7776652,5.48350538 Z M31.7776652,9.48350538 L31.7776652,12.5829791 L35.7776652,12.5829791 L31.6322529,10.3081797 L4.27016519,5.48350538 L8.27016519,30.3291874 L11.591556,34.3291874 L11.591556,30.3291874 L8.27016519,30.3291874 L8.27016519,9.48350538 L31.7776652,9.48350538 Z M8.27016519,30.3291874 L8.27016519,34.3291874 L4.27016519,30.3291874 L8.27016519,30.3291874 Z" id="Path-2-Copy" fill="#0C0C0C" fill-rule="nonzero" transform="translate(20.023915, 19.906346) rotate(-10.000000) translate(-20.023915, -19.906346) "></path>
                    </g>
                </g>
            </g>
        </g>
    </g>
</svg>
